; generated by PrusaSlicer 2.2.0+win64 on 2020-07-14 at 13:20:25 UTC


;
;

;
;
; 

; external perimeters extrusion width = 0.45mm
; perimeters extrusion width = 0.45mm
; infill extrusion width = 0.45mm
; solid infill extrusion width = 0.45mm
; top infill extrusion width = 0.40mm
; first layer extrusion width = 0.42mm

M73 P0 R16
M201 X1250 Y1250 Z400 E5000 ; sets maximum accelerations, mm/sec^2
M203 X180 Y180 Z12 E80 ; sets maximum feedrates, mm/sec
M204 P1250 R1250 T1250 ; sets acceleration (P, T) and retract acceleration (R), mm/sec^2
M205 X8.00 Y8.00 Z2.00 E10.00 ; sets the jerk limits, mm/sec
M205 S0 T0 ; sets the minimum extruding and travel feed rate, mm/sec
M107
G90 ; use absolute coordinates
M83 ; extruder relative mode
M104 S170 ; set extruder temp for bed leveling
M140 S60 ; set bed temp
M109 R170 ; wait for bed leveling temp
M190 S60 ; wait for bed temp
G28 ; home all without mesh bed level
G29 ; mesh bed leveling 
M104 S215 ; set extruder temp
G92 E0.0
G1 Y-2.0 X179 F2400
G1 Z3 F720
M109 S215 ; wait for extruder temp

; intro line
G1 X170 F1000
G1 Z0.2 F720
G1 X110.0 E8.0 F900
M73 P1 R16
G1 X40.0 E10.0 F700
G92 E0.0

M221 S95 ; set flow
G21 ; set units to millimeters
G90 ; use absolute coordinates
M83 ; use relative distances for extrusion
M900 K0.2 ; Filament gcode
;BEFORE_LAYER_CHANGE
G92 E0.0
;0.2


G1 Z0.200 F9000.000
;AFTER_LAYER_CHANGE
;0.2
G1 E-3.20000 F4200.00000
G1 Z0.400 F9000.000
G1 X83.557 Y84.330
G1 Z0.200
G1 E3.20000 F2400.00000
M204 S800
G1 F1098
G1 X84.863 Y83.287 E0.05240
G1 X86.073 Y82.646 E0.04294
G1 X87.665 Y82.152 E0.05226
G1 X89.355 Y81.995 E0.05322
G1 X91.050 Y82.194 E0.05349
G1 X92.360 Y82.609 E0.04307
G1 X93.835 Y83.403 E0.05254
G1 X95.143 Y84.512 E0.05377
G1 X96.175 Y85.848 E0.05295
G1 X96.792 Y87.061 E0.04266
G1 X97.259 Y88.661 E0.05227
G1 X97.388 Y90.306 E0.05172
G1 X97.243 Y91.672 E0.04307
G1 X96.760 Y93.267 E0.05226
G1 X95.959 Y94.734 E0.05240
G1 X95.093 Y95.789 E0.04280
G1 X93.820 Y96.858 E0.05213
G1 X92.346 Y97.648 E0.05240
G1 X91.044 Y98.057 E0.04280
G1 X89.350 Y98.256 E0.05349
G1 X87.664 Y98.098 E0.05308
G1 X86.072 Y97.604 E0.05226
G1 X84.862 Y96.963 E0.04294
G1 X83.556 Y95.920 E0.05240
G1 X82.458 Y94.580 E0.05431
G1 X81.694 Y93.099 E0.05226
G1 X81.301 Y91.783 E0.04307
G1 X81.129 Y90.125 E0.05226
G1 X81.301 Y88.467 E0.05226
G1 X81.696 Y87.147 E0.04317
G1 X82.459 Y85.669 E0.05216
G1 X83.519 Y84.376 E0.05243
M204 S1250
G1 X83.809 Y84.614 F9000.000
M204 S800
G1 F1098
G1 X85.074 Y83.600 E0.05083
G1 X86.214 Y82.996 E0.04046
G1 X87.738 Y82.522 E0.05001
G1 X89.354 Y82.372 E0.05091
G1 X90.975 Y82.564 E0.05116
G1 X92.209 Y82.955 E0.04059
G1 X93.621 Y83.714 E0.05027
G1 X94.872 Y84.774 E0.05142
G1 X95.856 Y86.050 E0.05052
G1 X96.440 Y87.197 E0.04034
G1 X96.888 Y88.728 E0.05001
G1 X97.011 Y90.306 E0.04963
G1 X96.873 Y91.597 E0.04072
G1 X96.411 Y93.124 E0.05001
G1 X95.646 Y94.523 E0.05001
G1 X94.828 Y95.522 E0.04046
G1 X93.610 Y96.545 E0.04989
G1 X92.200 Y97.300 E0.05014
G1 X90.973 Y97.687 E0.04034
G1 X89.348 Y97.879 E0.05129
G1 X87.736 Y97.728 E0.05078
G1 X86.213 Y97.254 E0.05001
G1 X85.072 Y96.650 E0.04047
G1 X83.822 Y95.653 E0.05014
G1 X82.775 Y94.375 E0.05181
G1 X82.043 Y92.957 E0.05001
G1 X81.671 Y91.713 E0.04072
G1 X81.506 Y90.126 E0.05001
G1 X81.671 Y88.540 E0.05001
G1 X82.042 Y87.295 E0.04072
G1 X82.773 Y85.878 E0.05001
G1 X83.771 Y84.660 E0.04935
M204 S1250
G1 X84.061 Y84.898 F9000.000
M204 S800
G1 F1098
G1 X85.281 Y83.914 E0.04914
G1 X86.356 Y83.345 E0.03814
G1 X87.810 Y82.892 E0.04776
G1 X89.354 Y82.749 E0.04859
G1 X90.900 Y82.934 E0.04883
G1 X92.063 Y83.302 E0.03826
G1 X93.408 Y84.025 E0.04788
G1 X94.602 Y85.037 E0.04907
G1 X95.540 Y86.256 E0.04823
G1 X96.089 Y87.337 E0.03802
G1 X96.517 Y88.799 E0.04776
G1 X96.634 Y90.306 E0.04740
G1 X96.504 Y91.519 E0.03826
G1 X96.064 Y92.977 E0.04776
G1 X95.333 Y94.313 E0.04776
G1 X94.562 Y95.254 E0.03814
G1 X93.399 Y96.232 E0.04764
G1 X92.053 Y96.953 E0.04788
G1 X90.896 Y97.318 E0.03802
G1 X89.350 Y97.502 E0.04882
G1 X87.811 Y97.359 E0.04847
G1 X86.356 Y96.906 E0.04776
G1 X85.282 Y96.336 E0.03814
G1 X84.085 Y95.382 E0.04800
G1 X83.086 Y94.162 E0.04942
G1 X82.389 Y92.808 E0.04776
G1 X82.041 Y91.639 E0.03826
G1 X81.883 Y90.124 E0.04776
G1 X82.042 Y88.609 E0.04776
G1 X82.391 Y87.439 E0.03826
G1 X83.088 Y86.085 E0.04775
G1 X84.023 Y84.944 E0.04625
M204 S1250
G1 E-2.24000 F4200.00000
G1 F7200.000
G1 X85.281 Y83.914 E-0.90103
G1 X85.299 Y83.905 E-0.01097
G1 E-0.04800 F4200.00000
G1 Z0.400 F9000.000
G1 X90.918 Y91.912
G1 Z0.200
G1 E3.20000 F2400.00000
M204 S800
G1 F1098
G1 X87.603 Y91.912 E0.10396
G1 X87.225 Y91.375 E0.02061
G1 X87.085 Y91.111 E0.00934
G1 X86.979 Y90.833 E0.00934
G1 X86.909 Y90.544 E0.00934
G1 X86.875 Y90.248 E0.00934
G1 X86.878 Y89.950 E0.00934
G1 X86.919 Y89.655 E0.00934
G1 X86.995 Y89.367 E0.00934
G1 X87.107 Y89.091 E0.00934
G1 X87.253 Y88.831 E0.00934
G1 X87.430 Y88.591 E0.00934
G1 X87.635 Y88.375 E0.00934
G1 X87.865 Y88.187 E0.00934
G1 X88.117 Y88.028 E0.00934
G1 X88.387 Y87.902 E0.00934
G1 X88.671 Y87.811 E0.00934
G1 X88.963 Y87.755 E0.00934
G1 X89.237 Y87.738 E0.00860
G1 X89.555 Y87.755 E0.00998
G1 X89.850 Y87.811 E0.00944
G1 X90.134 Y87.902 E0.00934
G1 X90.404 Y88.028 E0.00934
G1 X90.656 Y88.187 E0.00934
G1 X90.868 Y88.360 E0.00860
G1 X91.090 Y88.589 E0.00998
G1 X91.268 Y88.831 E0.00943
G1 X91.414 Y89.091 E0.00934
G1 X91.526 Y89.367 E0.00934
G1 X91.602 Y89.655 E0.00934
G1 X91.643 Y89.950 E0.00934
G1 X91.646 Y90.248 E0.00934
G1 X91.612 Y90.544 E0.00934
G1 X91.542 Y90.833 E0.00934
G1 X91.436 Y91.111 E0.00934
G1 X91.296 Y91.375 E0.00934
G1 X90.953 Y91.863 E0.01873
M204 S1250
G1 X90.722 Y91.535 F9000.000
M204 S800
G1 F1098
G1 X87.799 Y91.535 E0.09168
G1 X87.547 Y91.177 E0.01374
G1 X87.429 Y90.955 E0.00786
G1 X87.340 Y90.721 E0.00786
G1 X87.281 Y90.477 E0.00786
G1 X87.252 Y90.228 E0.00786
G1 X87.255 Y89.978 E0.00786
G1 X87.289 Y89.729 E0.00786
G1 X87.354 Y89.487 E0.00786
G1 X87.448 Y89.255 E0.00786
G1 X87.570 Y89.036 E0.00786
G1 X87.719 Y88.834 E0.00786
G1 X87.892 Y88.652 E0.00786
G1 X88.086 Y88.493 E0.00786
G1 X88.298 Y88.360 E0.00786
G1 X88.525 Y88.254 E0.00786
G1 X88.764 Y88.177 E0.00786
G1 X89.010 Y88.130 E0.00786
G1 X89.239 Y88.116 E0.00718
G1 X89.510 Y88.130 E0.00850
G1 X89.757 Y88.177 E0.00790
G1 X89.996 Y88.254 E0.00786
G1 X90.223 Y88.360 E0.00786
G1 X90.435 Y88.493 E0.00786
G1 X90.612 Y88.639 E0.00719
G1 X90.801 Y88.833 E0.00850
G1 X90.951 Y89.036 E0.00790
G1 X91.073 Y89.255 E0.00786
G1 X91.167 Y89.487 E0.00786
G1 X91.232 Y89.729 E0.00786
G1 X91.266 Y89.978 E0.00786
G1 X91.269 Y90.228 E0.00786
G1 X91.240 Y90.477 E0.00786
G1 X91.181 Y90.721 E0.00786
G1 X91.092 Y90.955 E0.00786
G1 X90.974 Y91.177 E0.00786
G1 X90.757 Y91.486 E0.01185
M204 S1250
G1 X90.647 Y91.928 F9000.000
G1 E-2.24000 F4200.00000
G1 F7200.000
G1 X89.111 Y91.514 E-0.91200
G1 E-0.04800 F4200.00000
G1 Z0.400 F9000.000
G1 X92.398 Y92.932
G1 Z0.200
G1 E3.20000 F2400.00000
M204 S800
G1 F1098
G1 X92.102 Y93.235 E0.01330
G1 X91.870 Y93.432 E0.00954
G1 X91.367 Y93.773 E0.01906
G1 X91.098 Y93.916 E0.00954
G1 X90.533 Y94.141 E0.01906
G1 X89.942 Y94.282 E0.01906
G1 X89.640 Y94.321 E0.00954
G1 X89.337 Y94.337 E0.00954
G1 X88.730 Y94.304 E0.01906
G1 X88.134 Y94.184 E0.01906
G1 X87.561 Y93.980 E0.01906
G1 X87.287 Y93.847 E0.00954
G1 X86.772 Y93.524 E0.01906
G1 X86.533 Y93.336 E0.00954
G1 X86.309 Y93.131 E0.00954
G1 X85.907 Y92.675 E0.01906
G1 X85.732 Y92.426 E0.00954
G1 X85.437 Y91.894 E0.01906
G1 X85.223 Y91.325 E0.01906
G1 X85.092 Y90.732 E0.01906
G1 X85.059 Y90.429 E0.00954
G1 X85.048 Y90.125 E0.00954
G1 X85.092 Y89.519 E0.01906
G1 X85.147 Y89.220 E0.00954
G1 X85.320 Y88.637 E0.01906
G1 X85.437 Y88.357 E0.00954
G1 X85.732 Y87.825 E0.01906
G1 X86.100 Y87.341 E0.01906
G1 X86.309 Y87.120 E0.00954
G1 X86.772 Y86.726 E0.01906
G1 X87.287 Y86.404 E0.01906
G1 X87.844 Y86.158 E0.01906
G1 X88.134 Y86.066 E0.00954
G1 X88.730 Y85.946 E0.01906
G1 X89.032 Y85.919 E0.00954
G1 X89.337 Y85.914 E0.00954
G1 X89.942 Y85.968 E0.01906
G1 X90.533 Y86.110 E0.01906
G1 X90.820 Y86.212 E0.00954
G1 X91.367 Y86.477 E0.01906
G1 X91.870 Y86.818 E0.01906
G1 X92.102 Y87.015 E0.00954
G1 X92.520 Y87.457 E0.01906
G1 X92.704 Y87.699 E0.00954
G1 X92.870 Y87.954 E0.00954
G1 X93.145 Y88.496 E0.01906
G1 X93.252 Y88.780 E0.00954
G1 X93.404 Y89.369 E0.01906
G1 X93.470 Y89.973 E0.01906
G1 X93.448 Y90.581 E0.01906
G1 X93.404 Y90.882 E0.00954
G1 X93.252 Y91.470 E0.01906
G1 X93.017 Y92.031 E0.01906
G1 X92.870 Y92.297 E0.00954
G1 X92.704 Y92.552 E0.00954
G1 X92.438 Y92.887 E0.01342
M204 S1250
G1 X92.721 Y93.136 F9000.000
M204 S800
G1 F1098
G1 X92.356 Y93.514 E0.01646
G1 X92.104 Y93.728 E0.01039
G1 X91.555 Y94.100 E0.02077
G1 X91.263 Y94.255 E0.01039
G1 X90.647 Y94.501 E0.02077
G1 X90.003 Y94.655 E0.02077
G1 X89.674 Y94.696 E0.01039
G1 X89.343 Y94.714 E0.01039
G1 X88.682 Y94.678 E0.02077
G1 X88.033 Y94.548 E0.02077
G1 X87.409 Y94.325 E0.02077
G1 X87.111 Y94.180 E0.01039
G1 X86.549 Y93.829 E0.02077
G1 X86.289 Y93.623 E0.01039
G1 X85.817 Y93.159 E0.02077
G1 X85.607 Y92.903 E0.01039
G1 X85.416 Y92.632 E0.01039
G1 X85.095 Y92.052 E0.02077
G1 X84.861 Y91.433 E0.02077
G1 X84.719 Y90.786 E0.02077
G1 X84.683 Y90.456 E0.01039
G1 X84.671 Y90.125 E0.01039
G1 X84.719 Y89.465 E0.02077
G1 X84.861 Y88.818 E0.02077
G1 X84.967 Y88.504 E0.01039
G1 X85.095 Y88.198 E0.01039
G1 X85.416 Y87.619 E0.02077
G1 X85.817 Y87.091 E0.02077
G1 X86.289 Y86.627 E0.02077
G1 X86.549 Y86.422 E0.01039
G1 X87.111 Y86.070 E0.02077
G1 X87.717 Y85.803 E0.02077
G1 X88.033 Y85.703 E0.01039
G1 X88.682 Y85.572 E0.02077
G1 X89.012 Y85.542 E0.01039
G1 X89.343 Y85.536 E0.01039
G1 X90.003 Y85.596 E0.02077
G1 X90.647 Y85.750 E0.02077
G1 X90.959 Y85.862 E0.01039
G1 X91.555 Y86.150 E0.02077
G1 X92.104 Y86.522 E0.02077
G1 X92.356 Y86.737 E0.01039
G1 X92.812 Y87.218 E0.02077
G1 X93.193 Y87.759 E0.02077
G1 X93.354 Y88.049 E0.01039
G1 X93.610 Y88.660 E0.02077
G1 X93.704 Y88.977 E0.01039
G1 X93.823 Y89.629 E0.02077
G1 X93.847 Y89.960 E0.01039
G1 X93.823 Y90.622 E0.02077
G1 X93.704 Y91.273 E0.02077
G1 X93.610 Y91.591 E0.01039
G1 X93.354 Y92.202 E0.02077
G1 X93.193 Y92.492 E0.01039
G1 X93.012 Y92.769 E0.01039
G1 X92.760 Y93.091 E0.01282
M204 S1250
G1 X92.329 Y93.057 F9000.000
G1 E-2.24000 F4200.00000
G1 F7200.000
G1 X92.356 Y93.514 E-0.32406
G1 X92.104 Y93.728 E-0.18365
G1 X91.555 Y94.100 E-0.36706
G1 X91.496 Y94.132 E-0.03722
G1 E-0.04800 F4200.00000
G1 Z0.400 F9000.000
G1 X89.468 Y94.217
G1 Z0.200
G1 E3.20000 F2400.00000
M204 S800
G1 F1098
G1 X85.335 Y90.083 E0.19054
G1 X85.341 Y90.409 E0.01063
G1 X85.370 Y90.672 E0.00864
G1 X88.709 Y94.012 E0.15391
G1 X88.209 Y93.911 E0.01661
G1 X87.968 Y93.825 E0.00836
G1 X85.559 Y91.416 E0.11102
G1 X85.695 Y91.775 E0.01251
G1 X85.972 Y92.276 E0.01865
G1 X86.129 Y92.499 E0.00891
G1 X86.436 Y92.847 E0.01512
G1 X87.327 Y93.739 E0.04109
M204 S1250
G1 E-2.24000 F4200.00000
G1 F7200.000
G1 X86.436 Y92.847 E-0.69856
G1 X86.182 Y92.558 E-0.21344
G1 E-0.04800 F4200.00000
G1 Z0.400 F9000.000
G1 X88.555 Y86.097
G1 Z0.200
G1 E3.20000 F2400.00000
M204 S800
G1 F1098
G1 X90.030 Y87.571 E0.06796
G1 X89.589 Y87.473 E0.01473
G1 X89.366 Y87.462 E0.00728
G1 X88.238 Y86.334 E0.05198
G1 X87.944 Y86.423 E0.01002
G1 X87.825 Y86.476 E0.00422
G1 X88.840 Y87.491 E0.04679
G1 X88.601 Y87.536 E0.00795
G1 X88.397 Y87.602 E0.00697
G1 X87.440 Y86.645 E0.04409
G1 X87.420 Y86.654 E0.00072
G1 X87.097 Y86.856 E0.01242
G1 X88.008 Y87.767 E0.04197
G1 X87.669 Y87.982 E0.01309
G1 X86.779 Y87.092 E0.04103
G1 X86.481 Y87.349 E0.01281
G1 X87.373 Y88.241 E0.04109
G1 X87.117 Y88.539 E0.01281
G1 X86.223 Y87.645 E0.04119
G1 X85.984 Y87.960 E0.01289
G1 X86.902 Y88.879 E0.04233
G1 X86.732 Y89.263 E0.01370
G1 X85.784 Y88.315 E0.04372
G1 X85.604 Y88.690 E0.01355
G1 X86.626 Y89.711 E0.04707
G1 X86.596 Y89.929 E0.00718
G1 X86.592 Y90.232 E0.00987
G1 X85.473 Y89.113 E0.05158
G1 X85.372 Y89.566 E0.01513
G1 X86.704 Y90.898 E0.06138
G1 X86.827 Y91.228 E0.01150
G1 X86.983 Y91.523 E0.01086
G1 X87.456 Y92.195 E0.02679
G1 X88.001 Y92.195 E0.01778
G1 X89.819 Y94.013 E0.08378
G1 X90.273 Y93.912 E0.01515
G1 X88.556 Y92.195 E0.07915
G1 X89.110 Y92.195 E0.01807
G1 X90.697 Y93.782 E0.07315
G1 X90.710 Y93.777 E0.00046
G1 X91.071 Y93.602 E0.01309
G1 X89.664 Y92.195 E0.06486
G1 X90.219 Y92.195 E0.01807
G1 X91.419 Y93.396 E0.05535
G1 X91.745 Y93.167 E0.01297
G1 X90.773 Y92.195 E0.04480
G1 X91.065 Y92.195 E0.00952
G1 X91.173 Y92.041 E0.00614
G1 X92.031 Y92.899 E0.03953
G1 X92.301 Y92.614 E0.01278
G1 X91.402 Y91.716 E0.04141
G1 X91.616 Y91.375 E0.01310
G1 X92.530 Y92.289 E0.04211
G1 X92.741 Y91.946 E0.01313
G1 X91.785 Y90.990 E0.04408
G1 X91.896 Y90.547 E0.01488
G1 X92.909 Y91.559 E0.04665
G1 X92.984 Y91.380 E0.00633
G1 X93.045 Y91.141 E0.00803
G1 X91.926 Y90.022 E0.05158
G1 X91.880 Y89.599 E0.01388
G1 X91.816 Y89.357 E0.00815
G1 X93.147 Y90.688 E0.06136
G1 X93.180 Y90.168 E0.01701
G1 X89.216 Y86.203 E0.18272
G1 X89.615 Y86.212 E0.01300
G1 X89.803 Y86.236 E0.00618
G1 X93.150 Y89.583 E0.15428
G1 X93.127 Y89.425 E0.00520
G1 X92.980 Y88.858 E0.01908
G1 X90.530 Y86.409 E0.11289
G1 X90.710 Y86.473 E0.00622
G1 X91.225 Y86.723 E0.01865
G1 X91.698 Y87.044 E0.01865
G1 X91.838 Y87.163 E0.00599
G1 X92.860 Y88.185 E0.04710
M204 S1250
M106 S255
;BEFORE_LAYER_CHANGE
G92 E0.0
;0.35


G1 Z0.350 F9000.000
;AFTER_LAYER_CHANGE
;0.35
G1 E-3.20000 F4200.00000
G1 Z0.550 F9000.000
G1 X96.175 Y85.848
G1 Z0.350
G1 E3.20000 F2400.00000
G1 F1065
G1 X96.792 Y87.061 E0.03291
G1 X97.259 Y88.661 E0.04031
G1 X97.388 Y90.306 E0.03989
G1 X97.243 Y91.672 E0.03322
G1 X96.760 Y93.267 E0.04031
G1 X95.959 Y94.734 E0.04042
G1 X95.093 Y95.789 E0.03301
G1 X93.820 Y96.858 E0.04021
G1 X92.346 Y97.648 E0.04042
G1 X91.044 Y98.057 E0.03301
G1 X89.350 Y98.256 E0.04126
G1 X87.664 Y98.098 E0.04095
G1 X86.072 Y97.604 E0.04031
G1 X84.862 Y96.963 E0.03312
G1 X83.556 Y95.920 E0.04042
G1 X82.458 Y94.580 E0.04189
G1 X81.694 Y93.099 E0.04031
G1 X81.301 Y91.783 E0.03322
G1 X81.129 Y90.125 E0.04031
G1 X81.301 Y88.467 E0.04031
G1 X81.696 Y87.147 E0.03330
G1 X82.459 Y85.669 E0.04024
G1 X83.557 Y84.330 E0.04189
G1 X84.863 Y83.287 E0.04042
G1 X86.073 Y82.646 E0.03312
G1 X87.665 Y82.152 E0.04031
G1 X89.355 Y81.995 E0.04105
G1 X91.050 Y82.194 E0.04126
G1 X92.360 Y82.609 E0.03322
G1 X93.835 Y83.403 E0.04052
G1 X95.143 Y84.512 E0.04147
G1 X96.138 Y85.801 E0.03939
G1 X95.841 Y86.030 F9000.000
G1 F1065
G1 X96.440 Y87.197 E0.03171
G1 X96.888 Y88.728 E0.03858
G1 X97.011 Y90.306 E0.03828
G1 X96.873 Y91.597 E0.03141
G1 X96.411 Y93.124 E0.03858
G1 X95.646 Y94.523 E0.03858
G1 X94.828 Y95.522 E0.03121
G1 X93.610 Y96.545 E0.03848
G1 X92.200 Y97.300 E0.03868
G1 X90.973 Y97.687 E0.03111
G1 X89.348 Y97.879 E0.03956
G1 X87.736 Y97.728 E0.03917
G1 X86.213 Y97.254 E0.03858
G1 X85.072 Y96.650 E0.03121
G1 X83.822 Y95.653 E0.03868
G1 X82.775 Y94.375 E0.03996
G1 X82.043 Y92.957 E0.03858
G1 X81.671 Y91.713 E0.03141
G1 X81.506 Y90.126 E0.03858
G1 X81.671 Y88.540 E0.03858
G1 X82.042 Y87.295 E0.03141
G1 X82.773 Y85.878 E0.03858
G1 X83.821 Y84.600 E0.03996
G1 X85.074 Y83.600 E0.03878
G1 X86.214 Y82.996 E0.03121
G1 X87.738 Y82.522 E0.03858
G1 X89.354 Y82.372 E0.03927
G1 X90.975 Y82.564 E0.03946
G1 X92.209 Y82.955 E0.03131
G1 X93.621 Y83.714 E0.03877
G1 X94.872 Y84.774 E0.03966
G1 X95.804 Y85.983 E0.03691
G1 X95.507 Y86.212 F9000.000
G1 F1065
G1 X96.089 Y87.337 E0.03064
G1 X96.517 Y88.799 E0.03684
G1 X96.634 Y90.306 E0.03656
G1 X96.504 Y91.519 E0.02951
G1 X96.064 Y92.977 E0.03684
G1 X95.333 Y94.313 E0.03684
G1 X94.562 Y95.254 E0.02942
G1 X93.399 Y96.232 E0.03675
G1 X92.053 Y96.953 E0.03693
G1 X90.896 Y97.318 E0.02933
G1 X89.350 Y97.502 E0.03766
G1 X87.811 Y97.359 E0.03739
G1 X86.356 Y96.906 E0.03684
G1 X85.282 Y96.336 E0.02942
G1 X84.085 Y95.382 E0.03702
G1 X83.086 Y94.162 E0.03812
G1 X82.389 Y92.808 E0.03684
G1 X82.041 Y91.639 E0.02951
G1 X81.883 Y90.124 E0.03684
G1 X82.042 Y88.609 E0.03684
G1 X82.391 Y87.439 E0.02951
G1 X83.088 Y86.085 E0.03683
G1 X84.087 Y84.866 E0.03812
G1 X85.281 Y83.914 E0.03693
G1 X86.356 Y83.345 E0.02942
G1 X87.810 Y82.892 E0.03684
G1 X89.354 Y82.749 E0.03748
G1 X90.900 Y82.934 E0.03766
G1 X92.063 Y83.302 E0.02951
G1 X93.408 Y84.025 E0.03693
